X:11652
T:Natalie's Visit
R:pipe reel
O:20th Century Cape Breton
C:Jerry Holland
S:Tune ofthe Month July 99
A:<http://www.jerryholland.com>
N:Contacts ...
N:..... Jerry Holland <jerry@cranfordpub.com>
N:Tune books, related recordings
N:..... Cranford Publications <http://www.cranfordpub.com>
H:Copyrights - www.fiddlesticksmusic.com (SOCAN)
Z:Paul Stewart Cranford 
L:1/8
Q:333
M:C|
K:Ador
eA A/A/A BAGA|eA A/A/A egfd|eA A/A/A BAGA|efge d2 Bd:|!
eaag edBd|eaag e2 dB|eaag efge|dGGA BcdB|!
eaag edBd|eaag e2 dB|gaba gefd|efge dGBd|]!
